icons/image-check.svg

<svg xmlns="http://www.w3.org/2000/svg" viewBox="0 0 24 24" fill="currentColor">
  <path d="M3.75 7c0-1.78579 1.46421-3.25 3.25-3.25h5c.4142 0 .75-.33579.75-.75s-.3358-.75-.75-.75H7C4.38579 2.25 2.25 4.38579 2.25 7v10c0 2.6142 2.13579 4.75 4.75 4.75h10c2.6142 0 4.75-2.1358 4.75-4.75V9c0-.41421-.3358-.75-.75-.75s-.75.33579-.75.75v5.0835l-1.4482-1.3409-.0079-.0069c-1.0271-.8988-2.5495-1.0915-3.6827-.1044l-.7146.6046-2.6663-2.6663c-.9534-.95343-2.46782-1.10109-3.57656-.2724L3.75 13.5214V7Zm14.0488 6.8582 2.4512 2.2696V17c0 .5972-.1637 1.1584-.4485 1.6409l-4.3405-4.3406.6235-.5276.0094-.0082c.4642-.4062 1.1351-.4 1.7049.0937ZM3.75 15.3804V17c0 1.7858 1.46421 3.25 3.25 3.25h10c.6488 0 1.2552-.1933 1.7643-.525l-8.0946-8.0947c-.4455-.4454-1.12877-.4985-1.6197-.1303l-.00692.0052-.00002-.0001L3.75 15.3804ZM19.122 5.13852c.2974-.28835.3047-.76317.0163-1.06053-.2883-.29737-.7631-.30467-1.0605-.01632l-2.8624 2.77571-.8155-1.08727c-.2485-.33138-.7186-.39853-1.05-.15001-.3314.24853-.3985.71863-.15 1.05l1.232 1.64265.0377.03769c.2118.21187.4886.29467.7178.29467.116 0 .2954-.02086.4728-.13001.0961-.05915.1866-.14303.2561-.24803l3.2057-3.10855Z"/>
</svg>

<svg width="24" height="24" viewBox="0 0 24 24" fill="none" xmlns="http://www.w3.org/2000/svg">
<path fill-rule="evenodd" clip-rule="evenodd" d="M3.75 7C3.75 5.21421 5.21421 3.75 7 3.75H12C12.4142 3.75 12.75 3.41421 12.75 3C12.75 2.58579 12.4142 2.25 12 2.25H7C4.38579 2.25 2.25 4.38579 2.25 7V17C2.25 19.6142 4.38579 21.75 7 21.75H17C19.6142 21.75 21.75 19.6142 21.75 17V9C21.75 8.58579 21.4142 8.25 21 8.25C20.5858 8.25 20.25 8.58579 20.25 9V14.0835L18.8018 12.7426L18.7939 12.7357C17.7668 11.8369 16.2444 11.6442 15.1112 12.6313L14.3966 13.2359L11.7303 10.5696C10.7769 9.61617 9.26248 9.46851 8.15374 10.2972L3.75 13.5214V7ZM17.7988 13.8582L20.25 16.1278V17C20.25 17.5972 20.0863 18.1584 19.8015 18.6409L15.461 14.3003L16.0845 13.7727L16.0939 13.7645C16.5581 13.3583 17.229 13.3645 17.7988 13.8582ZM3.75 15.3804V17C3.75 18.7858 5.21421 20.25 7 20.25H17C17.6488 20.25 18.2552 20.0567 18.7643 19.725L10.6697 11.6303C10.2242 11.1849 9.54093 11.1318 9.05 11.5L9.04308 11.5052L9.04306 11.5051L3.75 15.3804ZM19.122 5.13852C19.4194 4.85017 19.4267 4.37535 19.1383 4.07799C18.85 3.78062 18.3752 3.77332 18.0778 4.06167L15.2154 6.83738L14.3999 5.75011C14.1514 5.41873 13.6813 5.35158 13.3499 5.6001C13.0185 5.84863 12.9514 6.31873 13.1999 6.6501L14.4319 8.29275L14.4696 8.33044C14.6814 8.54231 14.9582 8.62511 15.1874 8.62511C15.3034 8.62511 15.4828 8.60425 15.6602 8.4951C15.7563 8.43595 15.8468 8.35207 15.9163 8.24707L19.122 5.13852Z" fill="black"/>
</svg>
